!!!COM: Johannes Brahms
!!!CNT: Deutscher
!!!TXO: Deutsche
!!!OTL: Der U2berla2ufer
!!!OPS: Op. 48
!!!ONM: No. 2
!!!LYR: Aus des Knaben Wunderhorn
!!!ONB: Original key: Originaltonart
!!!ENC: Ayako Kataoka
!!!EED: Leigh VanHandel
!!!YOR: C.F. Peters, Brahms Lieder fu2r eine Singstimme mit Klavierbegleitung, Band III, ausgabe fu2r tiefere Stimme
!!!ODT: 1853/
!!NB: Vocal melody and text only encoded.
**kern	**silbe
*clefG2	*
*k[f#c#g#]	*
*M2/4	*
*MM[andante]	*
=1-	=1-
{4a	{In
4a	den
=2	=2
4b	Gar-
4g#	-ten
=3	=3
4f#	wol-
8e	-len
8e	wir
=4	=4
4c#	ge-
4c#}	-hen,}
=5	=5
{4e	{wo
4e	die
=6	=6
4f#	scho2-
4d	-nen
=7	=7
4c#	Ro-
4B	-sen
=8	=8
4c#	ste-
4c#}	-hen.}
=9	=9
{4dd	{Da
8cc#	stehn
8b	der
=10	=10
(8.a	Ro-
16b)	|
4cc#	-sen
=11	=11
4b	gar
4g#	zu
=12	=12
2f#}	viel;}
=13	=13
{4g#	{brech
8g#	ich
8g#	mir
=14	=14
4a	ei-
4e	-ne,
=15	=15
4g#	wo
4g#	ich
=16	=16
2a}	will.}
=18	=18
4r	.
{4f#	{Wir
=19	=19
4a	ha-
8a	-ben
8a	gar
=20	=20
4b	o2f-
8g#	-ters
8g#	bei-
=21	=21
4f#	-samm'n
4e	ge-
=22	=22
4c#	-ses-
8c#}	-sen}
{8c#	{Wie
=23	=23
4e	ist
8e	mir
8e	mein
=24	=24
4f#	Schatz
4d	so
=25	=25
4c#	treu
4B	ge-
=26	=26
4c#	-we-
4c#}	-sen!}
=27	=27
{4dd	{Das
8cc#	ha2tt
8b	ich
=28	=28
(8.a	mir
16b)	|
8.cc#	nicht
16cc#	ge-
=29	=29
4b	-bil-
4g#	-det
=30	=30
2f#}	ein,}
=31	=31
{4g#	{dass
4g#	mein
=32	=32
4a	Schatz
4e	so
=33	=33
4g#	falsch
4g#	ko2nnt
=35	=35
2a}	sein.}
*-	*-
